packages/sights/assets/overlays/8_W2PO8L.svg

<svg width="500" height="375" viewBox="0 0 500 375" fill="none" xmlns="http://www.w3.org/2000/svg">
<path d="M433.48 5L466.81 13.28L469.56 25.51L472.31 75.65L468 88.49L490.63 127.01V138.63C490.63 138.63 478.4 153.63 475.03 167.98C475.03 167.98 473.51 178.07 481.15 183.27L482.68 194.58L475.95 198.58L478.09 213.58C467.704 230.466 454.515 245.457 439.09 257.91L404.29 267.95C404.29 267.95 436.39 112.49 271.29 99.65C271.29 99.65 111.29 94.6 132.29 274.37H9" stroke="white" stroke-miterlimit="10"/>
<path d="M269.129 369.5C337.441 369.5 392.819 314.122 392.819 245.81C392.819 177.498 337.441 122.12 269.129 122.12C200.817 122.12 145.439 177.498 145.439 245.81C145.439 314.122 200.817 369.5 269.129 369.5Z" stroke="white" stroke-miterlimit="10"/>
<path d="M132.34 274.37C132.91 273.37 135.09 269.1 135.09 269.1L146.19 259.47" stroke="white" stroke-miterlimit="10"/>
<path d="M404.289 267.95L398.669 263.83C398.669 263.83 398.369 258.64 392.439 255.56" stroke="white" stroke-miterlimit="10"/>
<path d="M9 205.13L108 201C108 201 127.75 85.89 256.62 77.18C256.62 77.18 401.76 66.18 429.97 205.18C429.97 205.18 455.83 205.81 476.49 202.18" stroke="white" stroke-miterlimit="10"/>
<path d="M259.33 5C259.33 5 258.87 25.29 237.68 79.32" stroke="white" stroke-miterlimit="10"/>
<path d="M387.17 5L388.39 9.3C388.39 9.3 424.62 49.97 430.39 54.86C430.39 54.86 467.7 54.53 471.74 66" stroke="white" stroke-miterlimit="10"/>
<path d="M170.4 40.8302C170.4 40.8302 170.17 36.0202 173.27 35.5602C173.27 35.5602 196.2 33.2702 206.75 35.5602C207.618 35.8671 208.396 36.3839 209.015 37.0643C209.634 37.7447 210.076 38.5678 210.3 39.4602C210.3 39.4602 231.91 37.2802 232.77 35.5602C233.23 34.6402 237.24 30.2902 235.64 26.3902C235.64 26.3902 230.84 25.2302 219.24 21.9202C218.44 21.6902 163.64 20.9202 154.46 26.2702C152.812 27.8237 151.619 29.7976 151.009 31.9791C150.399 34.1606 150.396 36.4671 151 38.6502C151 38.6502 166.73 41.8602 170.4 40.8302Z" stroke="white" stroke-miterlimit="10"/>
</svg>

<svg width="500" height="375" fill="none" xmlns="http://www.w3.org/2000/svg"><path d="m433.48 5 33.33 8.28 2.75 12.23 2.75 50.14L468 88.49l22.63 38.52v11.62s-12.23 15-15.6 29.35c0 0-1.52 10.09 6.12 15.29l1.53 11.31-6.73 4 2.14 15a174.404 174.404 0 0 1-39 44.33l-34.8 10.04s32.1-155.46-133-168.3c0 0-160-5.05-139 174.72H9" stroke="#fff" stroke-miterlimit="10"/><path d="M269.129 369.5c68.312 0 123.69-55.378 123.69-123.69s-55.378-123.69-123.69-123.69-123.69 55.378-123.69 123.69 55.378 123.69 123.69 123.69Z" stroke="#fff" stroke-miterlimit="10"/><path d="M132.34 274.37c.57-1 2.75-5.27 2.75-5.27l11.1-9.63M404.289 267.95l-5.62-4.12s-.3-5.19-6.23-8.27M9 205.13l99-4.13S127.75 85.89 256.62 77.18c0 0 145.14-11 173.35 128 0 0 25.86.63 46.52-3" stroke="#fff" stroke-miterlimit="10"/><path d="M259.33 5s-.46 20.29-21.65 74.32M387.17 5l1.22 4.3s36.23 40.67 42 45.56c0 0 37.31-.33 41.35 11.14M170.4 40.83s-.23-4.81 2.87-5.27c0 0 22.93-2.29 33.48 0a5.574 5.574 0 0 1 3.55 3.9s21.61-2.18 22.47-3.9c.46-.92 4.47-5.27 2.87-9.17 0 0-4.8-1.16-16.4-4.47-.8-.23-55.6-1-64.78 4.35A12.454 12.454 0 0 0 151 38.65s15.73 3.21 19.4 2.18Z" stroke="#fff" stroke-miterlimit="10"/></svg>
